X:1180
T:The Home Ruler
R:hornpipe
D:Noel Hill & Tony Linnane
Z:id:hn-hornpipe-10
M:C|
K:D
FE|:D2FA D2FA|dfed B2dB|~A3B AFDF|(3GFE FD B,DA,B,|
D2FA D2FA|dfed B2dB|~A3B AF (3EFG|1 F2D2 D2 FE:|2 F2D2 D2 dB||
|:Addc d2df|afbf afed|efed BAde|fded BdAB|
Addc d2df|afbf afed|efed BAdB|1 AFEF D2 dB:|2 AFEF D2 FE||
